findly-builder/apps/searchassist/src/assets/icons/dislike.svg

<svg width="15" height="14" viewBox="0 0 15 14" fill="none" xmlns="http://www.w3.org/2000/svg">
<path d="M11.109 0C11.16 0 11.2094 0.00653381 11.2565 0.0188094L11.2548 0H14.0257V9.33333H11.5255L9.36419 12.8942C8.901 13.6081 8.32377 14 7.609 14C7.44504 14 7.27954 13.9766 7.11957 13.9302C6.24651 13.6765 5.72329 12.8003 5.89609 11.9037L5.93674 11.7355L6.356 10.5H1.75C0.840667 10.5 0.0928467 9.80567 0.00801427 8.91848L0 8.75C0 8.30134 0.169023 7.89201 0.446838 7.58222C0.168612 7.27366 0 6.86478 0 6.41667C0 5.88549 0.236915 5.40943 0.610793 5.08843C0.409747 4.80586 0.291667 4.45833 0.291667 4.08333C0.291667 3.37066 0.718147 2.7572 1.3297 2.48434C1.22473 2.26243 1.16667 2.01297 1.16667 1.75C1.16667 0.840667 1.861 0.0928467 2.74818 0.00801425L2.91667 0H11.109ZM3.52567 7V8.16667H1.75C1.42817 8.16667 1.16667 8.42817 1.16667 8.75C1.16667 9.03607 1.37328 9.27448 1.64523 9.32392L1.75 9.33333H7.1715C7.53785 9.33333 7.80475 9.66339 7.74756 10.0098L7.72376 10.1045L7.04916 12.0861C6.95916 12.3958 7.13692 12.7203 7.44497 12.8098C7.49879 12.8254 7.55477 12.8333 7.609 12.8333C7.84454 12.8333 8.0584 12.7081 8.28043 12.4117L8.37617 12.274L10.5257 8.73133V1.16667H2.91667C2.63059 1.16667 2.39219 1.37328 2.34274 1.64523L2.33333 1.75C2.33333 2.03607 2.53995 2.27448 2.8119 2.32392L2.91667 2.33333H3.52567V3.5H2.04167C1.71983 3.5 1.45833 3.7615 1.45833 4.08333C1.45833 4.36941 1.66495 4.60781 1.9369 4.65726L2.04167 4.66667H3.52567V5.83333H1.75C1.42817 5.83333 1.16667 6.09483 1.16667 6.41667C1.16667 6.70274 1.37328 6.94114 1.64523 6.99059L1.75 7H3.52567ZM11.6923 8.16667H12.859V1.16667H11.6923V8.16667Z" fill="#9AA0A6"/>
</svg>

<svg width="15" height="14" fill="none" xmlns="http://www.w3.org/2000/svg"><path d="M11.109 0c.051 0 .1.007.148.019L11.255 0h2.77v9.333h-2.5l-2.16 3.561C8.9 13.608 8.323 14 7.608 14a1.752 1.752 0 0 1-1.713-2.096l.04-.168.42-1.236H1.75A1.75 1.75 0 0 1 .008 8.918L0 8.75c0-.449.169-.858.447-1.168A1.746 1.746 0 0 1 .61 5.088a1.75 1.75 0 0 1 .719-2.604A1.75 1.75 0 0 1 2.748.008L2.917 0h8.192ZM3.526 7v1.167H1.75a.584.584 0 0 0-.105 1.157l.105.01h5.421c.367 0 .634.33.577.676l-.024.095-.675 1.981a.584.584 0 0 0 .56.747c.236 0 .45-.125.671-.421l.096-.138 2.15-3.543V1.167h-7.61a.584.584 0 0 0-.573.478l-.01.105c0 .286.207.524.479.574l.105.01h.609V3.5H2.042a.584.584 0 0 0-.105 1.157l.105.01h1.484v1.166H1.75a.584.584 0 0 0-.105 1.158L1.75 7h1.776Zm8.166 1.167h1.167v-7h-1.167v7Z" fill="#9AA0A6"/></svg>
